!!!SOCIAL_FUNCTION:	dream songs
!!!PDT:	1932
!!!OTL: No_53_Dream_of_Buffalo_(b).krn
!!!REG: Wisconsin
!!!LANG: Non-Tone
!!!LING_GROUP: Algonquin
**kern
*staff1
=1-
*clefF4
*k[b-e-]
*M3/4
2r
8r
16r
16c\
=2
2c\
8c\L
8B-\J
=3
8B-\L
8B-\J
8G\
8r
8B-\L
8c\J
=4
2B-\
8B-\L
8G\J
=5||
*M4/4
4F\
2F\
4r
=6||
*M3/4
2B-\
8B-\L
8F\J
=7
8G\L
8F\J
8D\
8r
8F\L
8G\J
=8
2F\
8F\L
8D\J
=9||
*M4/4
4C/
2BB-/
4r
=10||
*M3/4
2C/
8C/L
8BB-/J
=11
8BB-/L
8BB-/J
8GG/
8r
8C/L
8C/J
=12
2BB-/
8BB-/L
8GG/J
=13
4FF/
2FF/
==
*-
